Flat-Remix-Dark/apps/scalable/libreoffice-main.svg

<svg width="512" height="512" version="1.1" viewBox="0 0 384 384" xmlns="http://www.w3.org/2000/svg"><defs><linearGradient id="c" x1="235.09" x2="720.48" y1="289.08" y2="-306.19" gradientTransform="scale(.75)" gradientUnits="userSpaceOnUse"><stop stop-color="#ccc" offset="0"/><stop stop-color="#49ade5" offset="1"/></linearGradient><clipPath id="d"><rect width="384" height="384"/></clipPath></defs><path d="m245.64 30.664-0.20703 0.95313v0.0078l-0.0156 0.0625c-0.0898 0.41016-0.082 0.82812 0.0312 1.2695 0.0352 0.21875 0.082 0.42578 0.14454 0.59766 0.0195 0.04687 0.0898 0.14844 0.1875 0.27344 0.0117 0.02344 0.0195 0.04297 0.0312 0.06641 0.33984 0.65234 5.8516 6.4648 12.246 12.91 6.3945 6.4492 17.441 17.625 24.555 24.836 7.1094 7.2109 18.484 18.746 25.273 25.629 6.7891 6.8867 12.688 12.973 13.102 13.531 0.0859 0.11719 0.1914 0.23047 0.30078 0.33985 0.33594 0.35156 0.6836 0.59765 1.1055 0.77734 0.20312 0.0977 0.41015 0.17969 0.61718 0.23047 1.2148 0.32422 2.0977 0.42969 2.7656 0.32422 0.0703-8e-3 0.14062-0.0195 0.20312-0.0352 0.10157-0.0234 0.19922-0.0508 0.28907-0.0859 0.0273-8e-3 0.0469-0.0312 0.0703-0.0547 0.0195-0.0117 0.043-0.0195 0.0625-0.0312 0.15625-0.0977 0.25-1.1406 0.30469-3.8047 8e-3 -0.33986 0.0156-0.76564 0.0195-1.168 4e-3 -0.15625 8e-3 -0.29687 8e-3 -0.46484 0.0547-3.6016 0.0664-9.4375 0.0625-19.328-4e-3 -14.586-0.14453-25.613-0.34375-27.012-0.0664-0.46094-0.14062-0.91406-0.22266-1.3672-0.0937-0.70312-0.20703-1.2383-0.35156-1.832-0.0508-0.21094-0.125-0.46094-0.1875-0.69922-0.34765-1.3945-0.76953-2.7461-1.2617-4.0547-0.0859-0.23437-0.17575-0.49218-0.25387-0.69531-0.25391-0.66016-0.56641-1.3438-0.92188-2.0391-3.2968-6.8282-8.7734-12.215-16.141-15.762-3-1.4414-4.9844-2.2656-8.8672-2.7383-0.4375-0.05469-0.89844-0.10547-1.418-0.15234h-0.0273c-0.0664-0.0078-0.14453-0.01172-0.21094-0.01953-0.37109-0.03125-0.76172-0.05859-1.1836-0.08594-4.9531-0.33984-12.539-0.37109-25.949-0.375h-23.816z" opacity=".3"/><path d="m81.477 360.27c-2.4727-0.66406-7.4961-3.0586-10.152-4.8438-5.2031-3.4922-10.277-9.9766-12.734-16.273l-1.207-3.0898-0.09375-143.05-0.089843-143.05 0.88672-2.8633c2.8164-9.1016 9.1836-16.453 17.828-20.586 6.0742-2.9023 0.32031-2.668 65.426-2.6602l57.914 0.003906 25.613 25.75c14.086 14.164 37.781 37.977 52.656 52.914 14.875 14.941 27.043 27.246 27.043 27.344s4.625 4.7969 10.277 10.449l10.277 10.27 0.078125 41.352c0.039062 22.742 0.078125 65.008 0.082031 93.922l0.011719 52.574-1.5703 3.2578c-1.9844 4.1367-3.168 5.8398-6.332 9.1562-4.1172 4.3086-8.3516 6.9375-14.488 8.9922l-2.9844 1.0039-108.29-0.03125c-94.418-0.027344-108.53-0.09375-110.15-0.53125z" fill="url(#c)"/><path d="m245.64 23.164-0.20703 0.95313v0.007812l-0.015625 0.0625c-0.089844 0.41016-0.082031 0.82812 0.03125 1.2695 0.035156 0.21875 0.082031 0.42578 0.14453 0.59766 0.019532 0.046874 0.089844 0.14844 0.1875 0.27344 0.011719 0.023437 0.019532 0.042969 0.03125 0.066406 0.33984 0.65234 5.8516 6.4648 12.246 12.91 6.3945 6.4492 17.441 17.625 24.555 24.836 7.1094 7.2109 18.484 18.746 25.273 25.629 6.7891 6.8867 12.688 12.973 13.102 13.531 0.085937 0.11719 0.19141 0.23047 0.30078 0.33984 0.33594 0.35156 0.68359 0.59766 1.1055 0.77734 0.20312 0.097656 0.41016 0.17969 0.61719 0.23047 1.2148 0.32422 2.0977 0.42969 2.7656 0.32422 0.070312-0.007812 0.14062-0.019531 0.20312-0.035156 0.10156-0.023438 0.19922-0.050781 0.28906-0.085938 0.027343-0.007812 0.046874-0.03125 0.070312-0.054687 0.019531-0.011719 0.042969-0.019531 0.0625-0.03125 0.15625-0.097656 0.25-1.1406 0.30469-3.8047 0.007812-0.33984 0.015624-0.76563 0.019531-1.168 0.003906-0.15625 0.007812-0.29688 0.007812-0.46484 0.054688-3.6016 0.066407-9.4375 0.0625-19.328-0.003906-14.586-0.14453-25.613-0.34375-27.012-0.066406-0.46094-0.14062-0.91406-0.22266-1.3672-0.09375-0.70312-0.20703-1.2383-0.35156-1.832-0.050781-0.21094-0.125-0.46094-0.1875-0.69922-0.34766-1.3945-0.76953-2.7461-1.2617-4.0547-0.085938-0.23438-0.17578-0.49219-0.25391-0.69531-0.25391-0.66016-0.56641-1.3438-0.92188-2.0391-3.2969-6.8281-8.7734-12.215-16.141-15.762-3-1.4414-4.9844-2.2656-8.8672-2.7383-0.4375-0.054687-0.89844-0.10547-1.418-0.15234h-0.027343c-0.066407-0.007813-0.14453-0.011719-0.21094-0.019532-0.37109-0.03125-0.76172-0.058594-1.1836-0.085937-4.9531-0.33984-12.539-0.37109-25.949-0.375h-23.816z" fill="#ccc"/><path d="m91.535 58.383c-0.30859 0-0.61719 0.0117-0.92578 0.0352h-0.35156l-0.0352 0.0469c-6.6172 0.68359-11.652 6.3477-11.66 13.113 8e-3 0.53516 0.043 1.0742 0.11328 1.6055l-0.0703 0.0898 0.0781 127.29 0.0742 125.86c-0.0625 0.51172-0.0937 1.0273-0.0977 1.5391 4e-3 6.8398 5.1445 12.543 11.844 13.137l0.0117 8e-3 0.16016 4e-3c0.32031 0.0273 0.63672 0.043 0.95703 0.0469 0.32813 0 0.65234-0.0156 0.97656-0.0391l98.953 0.43359 97.586 0.0273c0.54687 0.0742 1.0977 0.11328 1.6484 0.11719 6.5977-4e-3 12.141-5.0391 12.883-11.707l0.19922-0.16406-4e-3 -51.254c-8e-3 -24.293-0.0391-59.809-0.0742-78.922l-0.0625-34.746-8.6367-8.6289c-4.75-4.75-8.6367-8.6992-8.6367-8.7812 0-0.082-10.227-10.422-22.723-22.977-12.5-12.555-32.41-32.562-44.246-44.461l-21.52-21.637h-105.77c-0.22266-0.0195-0.44922-0.0312-0.67188-0.0352z" opacity=".3"/><path d="m91.535 50.883c-0.30859 0-0.61719 0.011719-0.92578 0.035157h-0.35156l-0.035156 0.046875c-6.6172 0.68359-11.652 6.3477-11.66 13.113 0.007812 0.53516 0.042969 1.0742 0.11328 1.6055l-0.070312 0.089844 0.078125 127.29 0.074218 125.86c-0.0625 0.51172-0.09375 1.0273-0.097656 1.5391 0.003906 6.8398 5.1445 12.543 11.844 13.137l0.011719 0.007813 0.16016 0.003906c0.32031 0.027344 0.63672 0.042969 0.95703 0.046875 0.32813 0 0.65234-0.015625 0.97656-0.039062l98.953 0.43359 97.586 0.027344c0.54687 0.074219 1.0977 0.11328 1.6484 0.11719 6.5977-0.003906 12.141-5.0391 12.883-11.707l0.19922-0.16406-0.003906-51.254c-0.007812-24.293-0.039062-59.809-0.074219-78.922l-0.0625-34.746-8.6367-8.6289c-4.75-4.75-8.6367-8.6992-8.6367-8.7812 0-0.082032-10.227-10.422-22.723-22.977-12.5-12.555-32.41-32.562-44.246-44.461l-21.52-21.637h-105.77c-0.22266-0.019531-0.44922-0.03125-0.67188-0.035157z" fill="#fff"/></svg>

<svg xmlns="http://www.w3.org/2000/svg" xmlns:xlink="http://www.w3.org/1999/xlink" width="384pt" height="384pt" version="1.1" viewBox="0 0 384 384"> <defs> <linearGradient id="linear0" x1="235.092" x2="720.481" y1="289.085" y2="-306.19" gradientTransform="matrix(0.75,0,0,0.75,0,0)" gradientUnits="userSpaceOnUse"> <stop offset="0" style="stop-color:rgb(80.000%,80.000%,80.000%)"/> <stop offset="1" style="stop-color:rgb(29.019%,68.235%,90.196%)"/> </linearGradient> <filter id="alpha" width="100%" height="100%" x="0%" y="0%" filterUnits="objectBoundingBox"> <feColorMatrix in="SourceGraphic" type="matrix" values="0 0 0 0 1 0 0 0 0 1 0 0 0 0 1 0 0 0 1 0"/> </filter> <mask id="mask0"> <g filter="url(#alpha)"> <rect width="384" height="384" x="0" y="0" style="fill:rgb(0%,0%,0%);fill-opacity:0.301961"/> </g> </mask> <clipPath id="clip1"> <rect width="384" height="384" x="0" y="0"/> </clipPath> <g id="surface5" clip-path="url(#clip1)"> <path style="fill:rgb(0%,0%,0%)" d="M 91.535156 58.078125 C 91.226562 58.078125 90.917969 58.089844 90.609375 58.113281 L 90.257812 58.113281 L 90.222656 58.160156 C 83.605469 58.847656 78.570312 64.507812 78.5625 71.273438 C 78.570312 71.8125 78.605469 72.347656 78.675781 72.882812 L 78.605469 72.972656 L 78.683594 200.253906 L 78.757812 326.121094 C 78.695312 326.628906 78.664062 327.144531 78.660156 327.65625 C 78.664062 334.496094 83.804688 340.199219 90.503906 340.792969 L 90.515625 340.800781 L 90.675781 340.804688 C 90.996094 340.832031 91.3125 340.847656 91.632812 340.851562 C 91.960938 340.851562 92.285156 340.839844 92.609375 340.8125 L 191.5625 341.246094 L 289.148438 341.273438 C 289.695312 341.347656 290.246094 341.386719 290.796875 341.394531 C 297.394531 341.390625 302.9375 336.351562 303.679688 329.683594 L 303.878906 329.519531 L 303.875 278.269531 C 303.867188 253.972656 303.835938 218.457031 303.800781 199.347656 L 303.738281 164.597656 L 295.101562 155.96875 C 290.351562 151.21875 286.464844 147.269531 286.464844 147.1875 C 286.464844 147.105469 276.238281 136.765625 263.742188 124.210938 C 251.242188 111.660156 231.332031 91.652344 219.496094 79.75 L 197.976562 58.113281 L 92.210938 58.113281 C 91.988281 58.09375 91.761719 58.082031 91.535156 58.078125 Z M 91.535156 58.078125"/> </g> </defs> <g> <path style="fill:url(#linear0)" d="M 81.476562 360.273438 C 79.003906 359.609375 73.980469 357.214844 71.324219 355.429688 C 66.121094 351.9375 61.046875 345.453125 58.589844 339.15625 L 57.382812 336.066406 L 57.289062 193.011719 L 57.199219 49.957031 L 58.085938 47.09375 C 60.902344 37.992188 67.269531 30.640625 75.914062 26.507812 C 81.988281 23.605469 76.234375 23.839844 141.339844 23.847656 L 199.253906 23.851562 L 224.867188 49.601562 C 238.953125 63.765625 262.648438 87.578125 277.523438 102.515625 C 292.398438 117.457031 304.566406 129.761719 304.566406 129.859375 C 304.566406 129.957031 309.191406 134.65625 314.84375 140.308594 L 325.121094 150.578125 L 325.199219 191.929688 C 325.238281 214.671875 325.277344 256.9375 325.28125 285.851562 L 325.292969 338.425781 L 323.722656 341.683594 C 321.738281 345.820312 320.554688 347.523438 317.390625 350.839844 C 313.273438 355.148438 309.039062 357.777344 302.902344 359.832031 L 299.917969 360.835938 L 191.625 360.804688 C 97.207031 360.777344 83.09375 360.710938 81.476562 360.273438 Z M 81.476562 360.273438"/> <path style="fill:rgb(80.000%,80.000%,80.000%)" d="M 245.644531 23.164062 L 245.4375 24.117188 C 245.4375 24.121094 245.4375 24.121094 245.4375 24.125 L 245.421875 24.1875 C 245.332031 24.597656 245.339844 25.015625 245.453125 25.457031 C 245.488281 25.675781 245.535156 25.882812 245.597656 26.054688 C 245.617188 26.101562 245.6875 26.203125 245.785156 26.328125 C 245.796875 26.351562 245.804688 26.371094 245.816406 26.394531 C 246.15625 27.046875 251.667969 32.859375 258.0625 39.304688 C 264.457031 45.753906 275.503906 56.929688 282.617188 64.140625 C 289.726562 71.351562 301.101562 82.886719 307.890625 89.769531 C 314.679688 96.65625 320.578125 102.742188 320.992188 103.300781 C 321.078125 103.417969 321.183594 103.53125 321.292969 103.640625 C 321.628906 103.992188 321.976562 104.238281 322.398438 104.417969 C 322.601562 104.515625 322.808594 104.597656 323.015625 104.648438 C 324.230469 104.972656 325.113281 105.078125 325.78125 104.972656 C 325.851562 104.964844 325.921875 104.953125 325.984375 104.9375 C 326.085938 104.914062 326.183594 104.886719 326.273438 104.851562 C 326.300781 104.84375 326.320312 104.820312 326.34375 104.796875 C 326.363281 104.785156 326.386719 104.777344 326.40625 104.765625 C 326.5625 104.667969 326.65625 103.625 326.710938 100.960938 C 326.71875 100.621094 326.726562 100.195312 326.730469 99.792969 C 326.734375 99.636719 326.738281 99.496094 326.738281 99.328125 C 326.792969 95.726562 326.804688 89.890625 326.800781 80 C 326.796875 65.414062 326.65625 54.386719 326.457031 52.988281 C 326.390625 52.527344 326.316406 52.074219 326.234375 51.621094 C 326.140625 50.917969 326.027344 50.382812 325.882812 49.789062 C 325.832031 49.578125 325.757812 49.328125 325.695312 49.089844 C 325.347656 47.695312 324.925781 46.34375 324.433594 45.035156 C 324.347656 44.800781 324.257812 44.542969 324.179688 44.339844 C 323.925781 43.679688 323.613281 42.996094 323.257812 42.300781 C 319.960938 35.472656 314.484375 30.085938 307.117188 26.539062 C 304.117188 25.097656 302.132812 24.273438 298.25 23.800781 C 297.8125 23.746094 297.351562 23.695312 296.832031 23.648438 C 296.824219 23.648438 296.816406 23.648438 296.804688 23.648438 C 296.738281 23.640625 296.660156 23.636719 296.59375 23.628906 C 296.222656 23.597656 295.832031 23.570312 295.410156 23.542969 C 290.457031 23.203125 282.871094 23.171875 269.460938 23.167969 L 245.644531 23.167969 Z M 245.644531 23.164062"/> <use mask="url(#mask0)" xlink:href="#surface5"/> <path style="fill:rgb(100.000%,100.000%,100.000%)" d="M 91.535156 50.882812 C 91.226562 50.882812 90.917969 50.894531 90.609375 50.917969 L 90.257812 50.917969 L 90.222656 50.964844 C 83.605469 51.648438 78.570312 57.3125 78.5625 64.078125 C 78.570312 64.613281 78.605469 65.152344 78.675781 65.683594 L 78.605469 65.773438 L 78.683594 193.058594 L 78.757812 318.921875 C 78.695312 319.433594 78.664062 319.949219 78.660156 320.460938 C 78.664062 327.300781 83.804688 333.003906 90.503906 333.597656 L 90.515625 333.605469 L 90.675781 333.609375 C 90.996094 333.636719 91.3125 333.652344 91.632812 333.65625 C 91.960938 333.65625 92.285156 333.640625 92.609375 333.617188 L 191.5625 334.050781 L 289.148438 334.078125 C 289.695312 334.152344 290.246094 334.191406 290.796875 334.195312 C 297.394531 334.191406 302.9375 329.15625 303.679688 322.488281 L 303.878906 322.324219 L 303.875 271.070312 C 303.867188 246.777344 303.835938 211.261719 303.800781 192.148438 L 303.738281 157.402344 L 295.101562 148.773438 C 290.351562 144.023438 286.464844 140.074219 286.464844 139.992188 C 286.464844 139.910156 276.238281 129.570312 263.742188 117.015625 C 251.242188 104.460938 231.332031 84.453125 219.496094 72.554688 L 197.976562 50.917969 L 92.210938 50.917969 C 91.988281 50.898438 91.761719 50.886719 91.539062 50.882812 Z M 91.535156 50.882812"/> </g> </svg>
